X:1
T:Can she excuse my wrongs
T:Can she excuse my wrongs
T:John Dowland (1562-1622)
C:John Dowland (1562-1622)
%%score [ 1 2 3 4 ]
L:1/8
Q:1/2=80
M:3/2
K:C
V:1 treble nm="Soprano"
V:2 treble nm="Alto"
V:3 treble-8 nm="Tenor"
V:4 bass nm="Bass"
V:1
 D4 A4 d4 | c6 B2 A4 | A4 G4 F4 | E12 | c4 A2 _B4 G2 | A8 F4 | G4 E4 E4 | D12 :: A4 A4 A4 | %9
w: Can she ex-|cuse my wrongs|with vir- tues|cloak?|Shall I call her|good when|she proves un-|kind?|No, no, where|
w: Are those clear|fires which va-|nish in- to|smoke?|Must I praise the|leaves where|no fruit I|find?|Cold love is|
 A4 A2 A4 B2 | c8 _B4 | A8 z4 | c4 A2 _B4 G2 | A8 _B4 | A4 d4 d4 | ^c12 :: A3 A A2 A4 A2 | %17
w: sha- dows do for|bo- dies|stand,|thou may'st be ab-|us'd if|thy sight be|dim.|Wilt thou be thus ab-|
w: like two words writ-|ten on|sand,|or two bub- bles|which on|the wa- ter|swim.||
 A4 A2 A6 | B3 B B2 B4 B2 | B4 B2 B4 B2 | A4 A2 A2 A2 A2 | A4 A4 A2 G2 | ^F3 G A2 B2 G2 A2 | %23
w: u- sed still,|see- ing that she will|richt thee ne- ver|if thou canst not or|come her will, thy|love will be thus fruit- less|
w: ||||||
 ^F8 D4 :| %24
w: e- ver.|
w: |
V:2
 F4 F6 G2 | A6 G2 F4 | F4 E4 D4 | ^C12 | E4 F2 G4 E2 | F6 E2 D4 | D8 ^C4 | D12 :: E4 ^C4 (D2 E2) | %9
w: Can she ex-|cuse my wrongs|with vir- tues|cloak?|Shall I call her|good when she|proves un-|kind?|No, no, where _|
w: Are those clear|fires which va-|nish in- to|smoke?|Must I praise the|leaves where no|fruit I|find?|Cold love is _|
 F4 E2 D4 D2 | E3 F G2 A2 G3 F | E8 z4 | E4 F2 G4 E2 | F6 A2 G4- | G2 F4 D2 F2 G2 | A12 :: %16
w: sha- dows do, where|sha- dows do for bo- dies|stand,|thou may'st be ab-|us'd, ab- us'd|_ if thy sight be|dim.|
w: like two words writ-|ten, two words writ- ten on|sand,|or two bub- bles|which, which on|_ wa- ter, wa- ter|swim.|
 A,3 B, C2 D4 C2 | F4 E2 (D4 C2) | B,3 C D2 E4 D2 | G4 F2 E4 D2 | ^C3 D E4 F2 G2 | %21
w: Wilt thou be thus ab-|u- sed still, _|see- ing that she will|richt thee ne- ver|if thou canst not or|
w: |||||
 E3 G F2 D2 ^C3 C | D4 A,2 D4 ^C2 | D8 D4 :| %24
w: come her will, thy love will|be thus fruit- less|e- ver.|
w: |||
V:3
 A4 (d3 e) f4 | f6 d2 c4 | c4 c4 A4 | A12 | A4 A2 d4 c2 | c8 _B4 | _B4 A6 G2 | ^F12 :: %8
w: Can she _ ex-|cuse my wrongs|with vir- tues|cloak?|Shall I call her|good when|she proves un-|kind?|
w: Are those _ clear|fires which va-|nish in- to|smoke?|Must I praise the|leaves where|no fruit I|find?|
 (^c3 d) e4 d2 c2 | d4 A2 F4 F2 | ((G3 F) E2) F2 D2 d2 | ^c8 z4 | A4 A2 d4 c2 | c6 (f2 e2) d2 | %14
w: No, _ no, no, where|sha- dows do for|bo- * dies, for bo- dies|stand,|thou may'st be ab-|us'd if _ thy|
w: Cold _ cold love is|like two words, two|words _ _ writ- ten on|sand,|or two bub- bles|which on _ the|
 ^c4 d2 f4 (ed) | e12 :: z4 z2 A3 B c2 | d4 c2 f4 e2 | d6 B3 c d2 | e4 d2 g4 f2 | %20
w: sight, thy sight be _|dim.|Wilt thou be|thus ab- u- sed|still, see- ing that|she will right thee|
w: wa- ter, wa- ter _|swim.|||||
 e3 d ^c3 c d d e2 | ^c2 c2 d2 f2 e4 | z2 d3 c B2 e2 e2 | A4 A8 :| %24
w: ne- ver, if thou canst not or|come her will, thy love|will be thus fruit- less|e- ver.|
w: ||||
V:4
 D,4 D,6 E,2 | (F,2 F,,4) G,,2 A,,2 F,,2 | A,,2 B,,2 C,4 D,4 | A,,8 z4 | A,,4 D,2 G,,4 C,2 | %5
w: Can she ex-|cuse, _ ex- cuse my|wrongs with vir- tues|cloak?|Shall I call her|
w: Are those clear|fires, _ clear fires which|va- nish in- to|smoke?|Must I praise the|
 F,,8 _B,,4 | G,,4 A,,4 A,,4 | D,12 :: (A,6 G,2) F,2 E,2 | D,4 ^C,2 D,4 D,2 | (C,6 F,,2) G,,4 | %11
w: good when|she proves un-|kind?|No, _ no, where|sha- dows do for|bo- * dies|
w: leaves where|no fruit I|find?|Cold _ love is|like two words writ-|ten _ on|
 A,,8 z4 | A,,4 D,2 G,,4 C,2 | F,,8 G,,4 | A,,4 _B,,6 B,,2 | A,,12 :: F,,3 F,, F,,2 F,,4 F,,2 | %17
w: stand,|thou may'st be ab-|us'd if|thy sight be|dim.|Wilt thou be thus ab-|
w: sand,|or two bub- bles|which on|the wa- ter|swim.||
 F,,4 F,,2 F,,6 | G,,3 G,, G,,2 G,,4 G,,2 | G,,4 G,,2 G,,4 G,,2 | A,,3 A,, A,,2 A,,2 A,,4 | %21
w: u- sed still,|see- ing that she will|richt thee ne- ver|if thou canst not or|
w: ||||
"_Was I so base that I might not aspire\nUnto those high joys which she holds from me,\nAs they are high so high is my desire,\nIf she this denies what can granted be.\n\nIf she will yield to that which reason is,\nIt is reasons will that love should be just,\nDear make me happy still by granting this\nOr cut of delays if that die I must.\n\nBetter a thousand times to die\nThan for to live thus still tormented,\nDear but remember it was I\nWho for thy fake did die contented." A,,4 A,,4 A,,2 A,,2 | %22
w: come her will, thy|
w: |
 D,3 E, ^F,2 G,2 E,2 E,2 | D,8 D,4 :| %24
w: love will be thus fruit- less|e- ver.|
w: ||

